!!!!SEGMENT: Gom2014-Quam_pulchra_es
!!!id: Gom2014
!!!AGN: Motet
!!!voices: 4
!!!COM: Nicolas Gombert
!!!OTL: Quam pulchra es
**kern	**kern	**kern	**kern
*part4	*part3	*part2	*part1
*staff4	*staff3	*staff2	*staff1
*I"Bassus	*I"Tenor	*I"Altus	*I"Superius
*I'B.	*I'T.	*I'A.	*I'S.
*clefF4	*clefGv2	*clefGv2	*clefGv2
*k[b-]	*k[b-]	*k[b-]	*k[b-]
*M2/1	*M2/1	*M2/1	*M2/1
*met(C|)	*met(C|)	*met(C|)	*met(C|)
=1	=1	=1	=1
!!section: Prima pars: Quam pulchra es
!!!OMD: Prima pars: Quam pulchra es
0r	0r	0r	0A
=2	=2	=2	=2
0r	0r	0r	1G
.	.	.	1F
=3	=3	=3	=3
0r	0r	0A	2.c
.	.	.	4d
.	.	.	2e
.	.	.	[2f
=4	=4	=4	=4
0r	1r	1G	4f]
.	.	.	4e
.	.	.	2.e
.	[1A	1F	.
.	.	.	4d
.	.	.	2d
=5	=5	=5	=5
0r	1A]	1c	2.e
.	.	.	4d
.	1G	1C	4e
.	.	.	4d
.	.	.	4c
.	.	.	4B-y
=6	=6	=6	=6
1r	1F	2D	0A
.	.	2.F	.
[1AA	[1c	.	.
.	.	4E	.
.	.	[2E	.
=7	=7	=7	=7
1AA]	2c]	2E]	1r
.	4B-y	4D	.
.	4A	4C	.
1GG	1B-y	1D	2r
.	.	.	2G
=8	=8	=8	=8
1FF	2c	1.F	2A
.	2A	.	2.c
2C	1G	.	.
.	.	.	4B-y
2C	.	2E	4G
.	.	.	4A
=9	=9	=9	=9
2D	2r	1D	2B-y
1F	2F	.	2A
.	2.G	1C	1c
2E	.	.	.
.	4A	.	.
=10	=10	=10	=10
1D	2B-y	2r	2d
.	2A	2F	1f
1C	2c	1G	.
.	2C	.	2e
=11	=11	=11	=11
2r	2D	2B-y	2d
2FF	2F	2A	1c
2GG	2E	1G	.
[2BB-y	2D	.	2B-y
=12	=12	=12	=12
4BB-]	2C	2r	2.c
4AA	.	.	.
2AA	2F	2C	.
.	.	.	4A
1GG	2G	1D	4B-y
.	.	.	4c
.	[2B-y	.	4d
.	.	.	4B-y
=13	=13	=13	=13
1FF	4B-]	1.F	1c
.	4A	.	.
.	2A	.	.
1C	2.G	.	2r
.	.	2E	2c
.	4A	.	.
=14	=14	=14	=14
2BB-y	2B-y	1F	2d
2D	2A	.	1f
1C	2c	1G	.
.	2C	.	2e
=15	=15	=15	=15
2BB-y	2D	2r	2d
2AA	2.F	2C	1c
1GG	.	2G	.
.	4E	.	.
.	2D	2G	2B-y
=16	=16	=16	=16
2r	1F	2A	0c
2FF	.	2A	.
2C	1E	2G	.
2C	.	2E	.
=17	=17	=17	=17
2D	1r	1F	2r
2D	.	.	2F
2C	2r	1E	2c
2AA	2C	.	2c
=18	=18	=18	=18
1BB-y	2G	2D	2d
.	2G	2BB-y	2d
2AA	2A	2F	2.c
2FF	2A	2F	.
.	.	.	4d
=19	=19	=19	=19
2C	2G	1G	4e
.	.	.	4d
2C	2E	.	4c
.	.	.	4B-y
2D	1F	2r	2A
2D	.	2F	[2B-y
=20	=20	=20	=20
2C	2E	2c	4B-]
.	.	.	4A
2AA	2F	2c	2A
1BB-y	1D	2d	2F
.	.	2d	[2G
=21	=21	=21	=21
2AA	2r	2c	2G]
2FF	2C	2A	1F
1GG	2G	1B-y	.
.	2G	.	2E
=22	=22	=22	=22
1FF	2A	2A	1F
.	2A	2F	.
1r	2G	2E	2r
.	2E	2C	[2c
=23	=23	=23	=23
1r	2F	1D	4c]
.	.	.	4B-y
.	2F	.	2B-y
2r	1E	2C	2G
2C	.	2E	[2A
=24	=24	=24	=24
2BB-y	1r	2D	2A]
2GG	.	2BB-y	1G
1AA	2r	1C	.
.	2c	.	2F#i
=25	=25	=25	=25
1GG	2B-y	2D	1G
.	2G	2E	.
1r	1A	1F	[1c
=26	=26	=26	=26
1.C	2G	2E	2c]
.	1E	1G	2c
.	.	.	1c
2C	2E	2G	.
=27	=27	=27	=27
2C	1E	1G	0c
2C	.	.	.
1FF	1F	1A	.
=28	=28	=28	=28
2C	2E	4G	0c
.	.	4F	.
1C	2G	4E	.
.	.	4D	.
.	2A	1E	.
2C	2E	.	.
=29	=29	=29	=29
2D	2F	0r	2r
2E	2G	.	1c
1F	2.A	.	.
.	.	.	2c
.	4B-y	.	.
=30	=30	=30	=30
2r	1G	1r	2d
2C	.	.	2e
2D	1F	2r	2f
2AA	.	[2F	2c
=31	=31	=31	=31
2BB-y	0r	2F]	2d
2.D	.	2F	2A
.	.	2G	2B-y
4C	.	.	.
2C	.	2A	2c
=32	=32	=32	=32
2.BB-y	1.F	1B-y	[0d
4C	.	.	.
1D	.	2r	.
.	2F	2A	.
=33	=33	=33	=33
0r	2G	2B-y	0d]
.	2A	2F	.
.	2B-y	2G	.
.	2F	2A	.
=34	=34	=34	=34
2r	2G	2.B-y	1r
2BB-y	2D	.	.
.	.	4A	.
2C	2E	4G	2r
.	.	4F	.
2GG	2G	4E	2B-y
.	.	4D	.
=35	=35	=35	=35
2AA	2F	1C	2c
2.C	2E	.	2G
.	1D	1r	2A
4BB-y	.	.	.
2GG	.	.	2B-y
=36	=36	=36	=36
1EE	1C	2r	2.c
.	.	2F	.
.	.	.	4A
2GG	2.D	2G	4B-y
.	.	.	4c
2BB-y	.	2D	[2d
.	4BB-y	.	.
=37	=37	=37	=37
1AA	1C	2E	2d]
.	.	2F	1c
1GG	1D	2G	.
.	.	2G	2BnXi
=38	=38	=38	=38
1.AA	2C	2E	4c
.	.	.	4G
.	2E	4D	1c
.	.	4C	.
.	2F	1D	.
2GG	2G	.	2BnXi
=39	=39	=39	=39
1AA	2E	2C	2c
.	2C	2E	2A
1r	2D	2F	2B-y
.	2E	2G	2c
=40	=40	=40	=40
1AA	1C	2E	2A
.	.	2C	2F
2BB-y	1r	2D	2G
2C	.	2E	2A
=41	=41	=41	=41
2AA	1A	2C	1F
2FF	.	2.F	.
2GG	2B-y	.	1r
.	.	4E	.
2AA	2c	2E	.
=42	=42	=42	=42
2FF	2A	1F	2r
2.F	2F	.	2A
.	2G	1r	2B-y
4E	.	.	.
2E	2G	.	2c
=43	=43	=43	=43
2.D	2.F	2r	2A
.	.	2A	2F
4C	4E	.	.
2BB-y	2D	2B-y	2G
2AA	2E	2c	2A
=44	=44	=44	=44
1D	1F	2A	4F
.	.	.	4G
.	.	2F	4A
.	.	.	4B-y
1C	1E	2G	1c
.	.	2A	.
=45	=45	=45	=45
2r	2r	1E	0A
1D	1F	.	.
.	.	1r	.
2C	2E	.	.
=46	=46	=46	=46
2.D	2.F	1r	2r
.	.	.	1d
4E	4G	.	.
[1F	1A	2r	.
.	.	[2A	2c
=47	=47	=47	=47
2F]	2D	2A]	2d
2E	1G	2G	2e
1D	.	2.A	[1f
.	2F	.	.
.	.	4B-y	.
=48	=48	=48	=48
1C	2G	1c	2f]
.	2A	.	2e
2BB-y	1B-y	2.F	2.d
[2D	.	.	.
.	.	4E	4c
=49	=49	=49	=49
2D]	0r	4F	2A
.	.	4G	.
2C	.	1A	2c
2D	.	.	1B-y
2E	.	2G	.
=50	=50	=50	=50
1.F	1.D	0A	2A
.	.	.	2f
.	.	.	2d
2E	2C	.	2e
=51	=51	=51	=51
2D	2D	1r	2f
2C	2E	.	1e
1D	1F	2r	.
.	.	[2A	2d
=52	=52	=52	=52
2AA	1.E	2A]	1e
1C	.	2G	.
.	.	2A	1r
2BB-y	2D	2B-y	.
=53	=53	=53	=53
2.AA	2.E	2c	2r
.	.	1E	1c
4GG	4F	.	.
4EE	1G	.	.
4FF	.	.	.
[2GG	.	2D	2B-y
=54	=54	=54	=54
2GG]	1C	2E	2G
1FF	.	2F	2A
.	2D	1G	1B-y
2EE	2E	.	.
=55	=55	=55	=55
2.FF	2C	2.F	1A
.	2F	.	.
4GG	.	4E	.
4AA	2E	1C	1c
4BB-y	.	.	.
4C	2A	.	.
4D	.	.	.
=56	=56	=56	=56
2E	2G	1r	2B-y
2F	2.F	.	2A
1C	.	1G	[1c
.	4E	.	.
.	2E	.	.
=57	=57	=57	=57
1r	2A	2F	0c]
.	2G	2E	.
1C	2E	[1G	.
.	2E	.	.
=58	=58	=58	=58
2BB-y	2D	2G]	0r
2AA	2C	2F	.
1C	1E	2G	.
.	.	2A	.
=59	=59	=59	=59
1BB-y	0r	2D	0r
.	.	2.G	.
2C	.	.	.
.	.	4F	.
2D	.	[2F	.
=60	=60	=60	=60
2GG	1r	2F]	0r
1C	.	1E	.
.	1G	.	.
2BB-y	.	2D	.
=61	=61	=61	=61
4AA	2F	1A	1c
4BB-y	.	.	.
4C	2E	.	.
4AA	.	.	.
2BB-y	2G	1r	2B-y
2D	[2F	.	2A
=62	=62	=62	=62
2.C	2F]	1G	0c
.	2E	.	.
4BB-y	.	.	.
4AA	2A	2F	.
4FF	.	.	.
2C	2G	2E	.
=63	=63	=63	=63
1AA	2F	2A	1c
.	2E	2.c	.
1GG	1G	.	2d
.	.	4B-y	.
.	.	2B-y	2e
=64	=64	=64	=64
1r	1F	2c	1A
.	.	2A	.
2r	2G	2B-y	2r
2AA	2A	2c	2c
=65	=65	=65	=65
2BB-y	2D	2F	2d
2C	1A	2E	2e
2FF	.	2F	1A
2AA	2F	2C	.
=66	=66	=66	=66
2GG	2G	2D	2B-y
2FF	2A	1F	2c
1BB-y	4D	.	1d
.	4E	.	.
.	4F	4E	.
.	4G	4D	.
=67	=67	=67	=67
1AA	1A	2E	0c
.	.	2.F	.
1C	1G	.	.
.	.	4E	.
.	.	2E	.
=68	=68	=68	=68
1.F	2A	1D	1r
.	4G	.	.
.	4F	.	.
.	2.G	1C	1c
2E	.	.	.
.	4A	.	.
=69	=69	=69	=69
2D	2B-y	2r	1.f
2D	4A	2F	.
.	4F	.	.
1C	1G	[1c	.
.	.	.	2e
=70	=70	=70	=70
1r	2F	2c]	2d
.	2BB-y	2B-y	2d
2r	[1F	2A	[1c
2FF	.	2A	.
=71	=71	=71	=71
1.C	2F]	1G	1c]
.	2E	.	.
.	1D	1r	2r
2BB-y	.	.	2F
=72	=72	=72	=72
2AA	1C	2r	1.c
2AA	.	2C	.
1GG	1D	1G	.
.	.	.	2B-y
=73	=73	=73	=73
2r	1r	2G	2A
2FF	.	2F	2A
[1C	2r	2E	1G
.	2C	2E	.
=74	=74	=74	=74
2C]	1.F	1D	2r
2BB-y	.	.	2F
2AA	.	2r	[1c
2AA	[2E	2C	.
=75	=75	=75	=75
1GG	4E]	1.G	2c]
.	4C	.	.
.	2D	.	2B-y
2.AA	1C	.	1A
.	.	2F	.
4BB-y	.	.	.
=76	=76	=76	=76
2C	1G	2E	2G
2GG	.	2D	2.d
2AA	2E	1A	.
.	.	.	4c
2FF	2F	.	[2c
=77	=77	=77	=77
1GG	1D	0G	2c]
.	.	.	2BnXi
2.C	2E	.	[1c
.	2F	.	.
4BB-y	.	.	.
=78	=78	=78	=78
1AA	2F	2r	1c]
.	2E	2c	.
1r	2D	2B-y	2r
.	2C	2A	2c
=79	=79	=79	=79
0r	2E	2G	2B-y
.	2F	2F	2A
.	2BB-y	2B-y	2G
.	2D	2A	2F
=80	=80	=80	=80
1r	2E	2G	2B-y
.	2F	2.F	2A
2r	1C	.	1G
.	.	4E	.
2C	.	2E	.
=81	=81	=81	=81
2BB-y	2r	1F	1r
2AA	2c	.	.
2GG	2B-y	2r	2r
2FF	2A	[2c	2f
=82	=82	=82	=82
2C	2G	2c]	2e
2D	2F	2B-y	2d
2AA	2E	2A	2c
2BB-y	2D	[2G	2B-y
=83	=83	=83	=83
2C	2C	4G]	2e-i
.	.	4A	.
2BB-y	1F	2B-y	2d
1C	.	1G	2c
.	2E	.	2c
=84	=84	=84	=84
0FF	2F	1A	2c
.	2c	.	2c
.	2c	2r	2.F
.	2c	2c	.
.	.	.	4G
=85	=85	=85	=85
2r	2.F	2c	1A
2F	.	2c	.
.	4G	.	.
2F	1A	2F	2r
2F	.	2F	2f
=86	=86	=86	=86
2BB-y	0r	1B-y	2f
2BB-y	.	.	2f
1E-X	.	[1G	2B-y
.	.	.	2B-y
=87	=87	=87	=87
2C	2r	2G]	2e-X
2C	2c	2G	2e-i
2F	2c	2A	2c
2E	2c	2G	2c
=88	=88	=88	=88
1D	2F	2A	2.f
.	2F	1F	.
.	.	.	4e
1BB-y	1B-y	.	1d
.	.	[2B-y	.
=89	=89	=89	=89
2.E-i	2G	4B-]	2r
.	.	4A	.
.	2G	1A	2c
4D	.	.	.
1C	2.c	.	2.e
.	.	[2c	.
.	4B-y	.	4d
=90	=90	=90	=90
2r	2A	4c]	1c
.	.	4B-y	.
1C	1E	4A	.
.	.	4G	.
.	.	2A	1r
2D	2F	2B-y	.
=91	=91	=91	=91
2C	2E	2A	1r
2BB-y	2D	2G	.
1AA	[1E	1A	1c
=92	=92	=92	=92
1.C	2E]	2G	2r
.	1G	1c	2e
.	.	.	2e
2F	2A	2d	2f
=93	=93	=93	=93
2C	2G	2c	2e
2D	2F	2B-y	1d
1AA	1E	[1A	.
.	.	.	2c#i
=94	=94	=94	=94
2r	0D	1A]	0d
2D	.	.	.
1F	.	2r	.
.	.	2A	.
=95	=95	=95	=95
2E	0r	1c	2r
2C	.	.	2e
1E	.	2B-y	1g
.	.	2G	.
=96	=96	=96	=96
0D	1r	1B-y	2f
.	.	.	2d
.	2r	1A	1f
.	2A	.	.
=97	=97	=97	=97
1r	2.c	2r	1e
.	.	2A	.
.	4B-y	.	.
1C	2A	1c	2r
.	[2G	.	2e
=98	=98	=98	=98
1E-i	4G]	2.B-y	2.g
.	4A	.	.
.	4B-y	.	.
.	4G	4c	4e
2D	2A	[1d	2f
2BB-y	[2B-y	.	[2g
=99	=99	=99	=99
1D	4B-]	2d]	4g]
.	4A	.	4f
.	2F	2B-y	1f
1C	2G	1c	.
.	2A	.	2e
=100	=100	=100	=100
2BB-y	2B-y	1r	2d
2C	1A	.	1c
1D	.	1F	.
.	4G	.	2BnXi
.	4F	.	.
=101	=101	=101	=101
2C	1E	2G	1c
2C	.	2A	.
2D	1r	2B-y	1r
2E	.	2G	.
=102	=102	=102	=102
2F	1F	2A	1r
2D	.	2.B-y	.
2E	2G	.	2r
.	.	4c	.
[2F	2A	2A	2c
=103	=103	=103	=103
4F]	2B-y	2G	2d
4E	.	.	.
2E	2G	2.c	2e
1D	2A	.	2f
.	.	4A	.
.	2F	2B-y	2d
=104	=104	=104	=104
1C	2G	2.c	2e
.	2A	.	2c
.	.	8B-yL	.
.	.	8AJ	.
2r	2B-y	2G	2d
2C	[2A	2c	2e
=105	=105	=105	=105
2D	2A]	1B-y	2f
2E	2G	.	2.e
2F	2A	2A	.
.	.	.	4d
2D	2F	[2B-y	[2d
=106	=106	=106	=106
1E-i	1G	2B-]	2d]
.	.	4A	2c
.	.	4G	.
2D	2A	2F	1d
2BB-y	4B-y	[2G	.
.	4G	.	.
=107	=107	=107	=107
2C	1A	2G]	0r
2D	.	2F	.
2E-i	2G	2G	.
2C	[2c	[2A	.
=108	=108	=108	=108
1D	2c]	2A]	1.f
.	2B-y	4G	.
.	.	4F	.
1C	2c	1G	.
.	2G	.	2e
=109	=109	=109	=109
0r	1A	2r	2f
.	.	1c	2c
.	1G	.	1d
.	.	2BnXi	.
=110	=110	=110	=110
2r	1C	2c	1c
1C	.	2G	.
.	[1F	2A	1r
2BB-y	.	2B-y	.
=111	=111	=111	=111
2C	2F]	2G	1r
2GG	2E	2B-y	.
1AA	2F	2A	[1c
.	2C	2F	.
=112	=112	=112	=112
1GG	1D	1G	2c]
.	.	.	2B-y
2FF	1r	2A	2c
[2C	.	2E	2G
=113	=113	=113	=113
2C]	2r	1F	2A
2BB-y	1F	.	2B-y
1C	.	1r	1G
.	2E	.	.
=114	=114	=114	=114
1FF	2F	1r	1.A
.	2C	.	.
[1F	1D	[1A	.
.	.	.	4G
.	.	.	4F
=115	=115	=115	=115
2F]	1C	2A]	1G
2E	.	2G	.
2F	1r	2A	[1c
2C	.	2E	.
=116	=116	=116	=116
1D	1.F	2F	2c]
.	.	4E	2B-y
.	.	4D	.
1C	.	1E	2c
.	2E	.	2G
=117	=117	=117	=117
1FF	2F	[0Fl	4A
.	.	.	4B-y
.	2C	.	4c
.	.	.	4A
[1BB-y	2.D	.	4B-y
.	.	.	4c
.	.	.	[2d
.	4C	.	.
=118	=118	=118	=118
2BB-]	2BB-y	0F_	4d]
.	.	.	4c
2AA	2C	.	1c
1BB-y	1D	.	.
.	.	.	2B-y
=119	=119	=119	=119
0FFl	0Cl	0F]	0cl
==	==	==	==
*-	*-	*-	*-
!!!system-decoration: s1,s2,s3,s4
!!!RDF**kern: i = editorial accidental
!!!RDF**kern: l = terminal long
!!!ENC: Janosch Umbreit
!!!END: 2020/12/12
!!!EED: Benjamin Ory
!!!EEV: 2026/01/29
!!!YEC: Copyright 2026 Benjamin Ory, All Rights Reserved
!!!ONB: Translated from MusicXML on 2026/01/29
